!!!OTL: Fr&uuml;hjahr (117b), S. 282
!!!id: T0282
**kern
*clefG2
*k[]
*G:
{8g
8g
8a
=1
4b
4b
8a
8a
=2
4g}
8r
=3
{8cc
8g
8b
=4
4dd
4dd
8ee
8ee
=5
4dd}
8r
=6
{8b
8cc
8a
=7
4g
4dd
8dd
8cc
=8
4b}
8r
==
*-
!!!minrhy: 8
!!!meters: 3/4 ]  ZZ[3
!!!cut: Fr&uuml;hjahr (117b), S. 282
!!!reg: Luxemburg
!!!trd: Singendes Volk, Esch-Alzette 1937 posth.
!!!rhy1: XXX  X_X_XX  X_0
!!!rhy2: XXX  X_X_XX  X_0
!!!key: T0282  08  G 3/4 ]  ZZ[3
!!!mod: SECHSTONSKALA DUR ?]  AMBITUS[6
!!!kad: 153
!!!akz: 31_55_13_
!!!fot: 'a__b__c__
!!!for: 'a__a__a__
!!!fok: '^__Va_S__
!! PHRAS[AUFTAKTIG]
!!!fkt: Liebeslieder
!!!bem: K&uuml;ntzig, fff Kayser, Junglinster, von Mutter erlernt
!! THILL, Mathias:
!! PR[35] 2K[2] 2G[12] 3K[10] 3G[6] 4A[2] 4Ü[0] 5A[0] 6K[0] 6G[0]
!! 7K[2] 7G[0] 8A[0] MEHR[0] SI[33] ABS[52] SR[13] SP[19]
!! ST[18] 2k[2] 2g[17] 3k[8] 3g[0] 4d[2] 4ü[0] 5d[4] 6k[0] 6g[0]
!! 7k[0] 7g[0] 8d[0] mehr[0] si[33] dm[0] sr[19] sp[13]
!! 1F[70] 2F[29] 3F[0] 4F[0] LF[0] 2P[2] 3P[0] 4P[0] TRI[0] DF[3] AB[56]
!! TF[0] U3K[0] U3[0] U4[0] U4Ü[0] U5[6] U6K[0] U6[0] U7K[0] U7[0]
!! N1[17] N2K[0] N2[19] N3K[0] N3[23] N4[11] N4Ü[0] N5[23] N6K[0] N6[2]
!!!n7k: 0] N7[0] O1[0] O2K[0] O2[0] O3K[0] O3[0] HÖ[0
!!!RNB: symbol: &uuml;  = u umlaut (UTF-8: Ã¼)
